!!!COM:	Pierre de la Rue
**kern	**kern
*part2	*part1
*staff2	*staff1
*clefGv2	*clefGv2
*k[]	*k[]
*M2/1	*M2/1
=1-	=1-
1A	0r
2.A	.
4G	.
=2	=2
4F	1d
4E	.
1G	.
.	2.d
4F	.
4E	4c
=3	=3
2D	4c
.	4B
2E	1c
2C	.
2F	4B
.	4A
=4	=4
1B-X	1G
1A	1F
=5	=5
2r	2r
2A	2a
2.c	2.a
4B	4g
=6	=6
4A	4f
4G	4e
2B	1g
2G	.
[2c	4f
.	4e
=7	=7
2c]	1d
2B	.
2c	2.c
4B	.
4A	4d
=8	=8
2G	2e
2F	1d
1G	.
.	4c
.	4B
=9	=9
0F	1A
.	2r
.	[2c
=10	=10
2r	2c]
4D	2.d
4E	.
4F	.
4G	4c
4A	2A
4F	.
=11	=11
2G	2B
2.A	4A
.	4B
.	4c
4B	4d
4c	4e
4A	4c
=12	=12
4B	2.d
4c	.
2.d	.
.	4e
.	4f
4c	4d
4B	4e
4A	4f
=13	=13
2G	2.g
2.c	.
.	4f
.	4e
4B	4d
4A	[2e
4G	.
=14	=14
4F	2e]
4E	.
1A	4d
.	4c
.	1B
2G	.
=15	=15
0A	0A
==	==
*-	*-
